X: 305736
M: 6/8
L: 1/8
K: C
!p!G, |\
a3 A3 | Adf a2A | g3 G3 | Gce g2g | ^fgf efe | dGB d2c | BcB ABA | GBA "^D.C."G2 |]
c3 G2G | edc edc | {A}a3 afd | B3 Bdg |\
a3 gdf | e3 (eg)g | c3 cdc | Bdg d/B/G/F/D/"^D.C."B,/ |]


